svg/scala.svg

<svg viewBox="0 0 20 20" xmlns="http://www.w3.org/2000/svg">
<rect width="100%" height="100%" fill="#2F515D"/>
<path fill-rule="evenodd" clip-rule="evenodd" d="M4.51633 7.51165C4.66897 7.72205 5.95615 8.11893 7.8762 8.53232C9.79625 8.90032 11.793 10.3533 13.3459 9.90531C14.3963 9.60167 15.5358 6.89611 15.5358 6.49428V6.45302C15.5358 6.17248 15.3254 5.94723 14.9681 5.75993C13.5035 5.01154 13.2263 4.73596 12.6833 4.8853C9.86473 5.66339 4.88845 5.26568 4.51633 7.51165Z" fill="#8B9396"/>
<path fill-rule="evenodd" clip-rule="evenodd" d="M4.51633 13.0054C4.66897 13.2191 5.95615 13.6127 7.8762 14.0269C10.0215 14.418 11.8871 15.6928 13.4408 15.2439C14.4912 14.9403 15.5358 12.3907 15.5358 11.988V11.9484C15.5358 11.6687 15.3254 11.4426 14.9681 11.2561C13.8509 10.662 12.3747 10.0077 11.8326 10.1571C9.00909 10.9335 5.235 11.1043 4.51633 13.0054Z" fill="#8B9396"/>
<path fill-rule="evenodd" clip-rule="evenodd" d="M13.4367 2.06193C10.8409 2.81196 6.72271 3.23524 4.50397 3.23524V7.47221C4.50467 7.48679 4.51019 7.50071 4.51964 7.51182C6.03373 7.51182 10.708 7.01675 13.5283 6.24114C14.0201 6.11595 14.5024 5.95575 14.9714 5.76175C15.3163 5.60663 15.5391 5.44325 15.5391 5.27328V1C15.5358 1.40266 14.4871 1.75911 13.4367 2.06193Z" fill="white"/>
<path fill-rule="evenodd" clip-rule="evenodd" d="M13.4366 7.55631C11.883 8.00435 9.78633 8.33769 7.87619 8.53242C6.59396 8.66362 5.39589 8.7321 4.50394 8.7321V12.9658C4.50464 12.9803 4.51016 12.9943 4.51961 13.0054C6.0337 13.0054 10.708 12.5103 13.5282 11.7355C14.02 11.61 14.5022 11.4498 14.9714 11.2561C15.3163 11.1002 15.539 10.9376 15.539 10.7677V6.49438C15.5357 6.89622 14.487 7.25267 13.4366 7.55631Z" fill="white"/>
<path fill-rule="evenodd" clip-rule="evenodd" d="M13.4366 13.0543C11.8829 13.5024 9.78631 13.8349 7.87616 14.0304C6.59228 14.1616 5.39256 14.2301 4.50061 14.2301V18.5001C5.99902 18.5001 10.6972 18.0092 13.5249 17.2302C14.567 16.9431 15.5357 16.6164 15.5357 16.2616V11.9883C15.5357 12.3942 14.487 12.7474 13.4366 13.0543Z" fill="white"/>
</svg>

<svg xmlns="http://www.w3.org/2000/svg" viewBox="0 0 20 20">
  <rect width="100%" height="100%" fill="#2F515D"/>
  <path fill="#8B9396" fill-rule="evenodd" d="M4.5 7.5c.2.2 1.5.6 3.4 1s3.9 1.9 5.4 1.4c1.1-.3 2.2-3 2.2-3.4 0-.3-.2-.6-.5-.7-1.5-.8-1.8-1-2.3-1-2.8.9-7.8.5-8.2 2.7ZM4.5 13c.2.2 1.5.6 3.4 1 2.1.4 4 1.7 5.5 1.2 1-.3 2.1-2.8 2.1-3.2 0-.3-.2-.6-.5-.7-1.1-.6-2.6-1.3-3.2-1.1-2.8.7-6.6.9-7.3 2.8Z" clip-rule="evenodd"/>
  <path fill="#fff" fill-rule="evenodd" d="M13.4 2a39 39 0 0 1-8.9 1.2v4.3A46.6 46.6 0 0 0 15 5.8l.5-.5V1c0 .4-1 .8-2 1ZM13.4 7.6a34.1 34.1 0 0 1-8.9 1.1V13A46.7 46.7 0 0 0 15 11.3l.5-.5V6.5c0 .4-1 .8-2 1ZM13.4 13a34.2 34.2 0 0 1-8.9 1.2v4.3c1.5 0 6.2-.5 9-1.3 1-.3 2-.6 2-1V12c0 .4-1 .7-2 1Z" clip-rule="evenodd"/>
</svg>
